assets/favicon.svg

<svg width="152" height="152" viewBox="0 0 152 152" fill="none" xmlns="http://www.w3.org/2000/svg">
<path d="M151.5 40.6542C147.7 44.2542 144 47.6542 140.3 51.1542C138.5 49.5542 136.5 47.7542 134.3 46.1542C131.4 44.0542 128.3 42.4542 124.6 42.4542C121 42.3542 118.2 43.6542 116.3 46.6542C111.6 53.9542 107 61.3542 102.3 68.7542C96 78.6542 89.8 88.5542 83.3 98.3542C74.3 111.854 61.3 117.454 45.4 117.254C36.1 117.154 27.5 115.054 19.8 109.554C18.7 108.754 17.7 107.954 16.3 106.854C16.3 119.354 16.3 131.554 16.3 143.954C10.8 143.954 5.5 143.954 0 143.954C0 105.054 0 66.1542 0 27.1542C5.3 27.1542 10.7 27.1542 16.2 27.1542C16.2 30.5542 16.2 33.9542 16.2 37.7542C17.5 36.7542 18.4 35.9542 19.5 35.2542C29 28.2542 39.7 26.0542 51.2 27.3542C67 29.0542 78.3 37.3542 85.7 51.2542C86.4 52.6542 86.3 53.6542 85.4 54.9542C81.8 60.2542 78.2 65.6542 74.8 70.9542C73.8 67.3542 73 63.5542 71.7 59.9542C68.2 50.0542 60.4 44.9542 50.6 43.0542C33.7 39.7542 18.5 51.7542 16.3 68.8542C14.4 83.9542 25 98.9542 40.1 101.454C52.3 103.454 62.7 99.5542 70.1 89.4542C75.9 81.4542 81.1 72.8542 86.5 64.5542C92 56.0542 97.8 47.6542 103 38.9542C110 27.2542 124.3 24.5542 135.6 29.3542C141.6 31.6542 146.6 35.6542 151.5 40.6542Z" fill="#F55D3E"/>
<path d="M94.3 104.654C94.9 103.954 104 91.3543 104.5 90.8543C106.9 93.1543 109 95.4543 111.4 97.3543C115.4 100.554 119.9 102.054 124.9 100.654C129 99.5543 132.2 97.0543 133.2 92.7543C134.2 88.3543 132.3 84.9543 128.6 82.4543C127.4 81.6543 125.2 80.2543 123.9 79.4543C122.4 78.4543 118 75.9543 113.8 73.5543C110.4 71.3543 109.9 71.2543 107.7 69.7543C110.7 65.0543 113.5 60.5543 116.1 56.4543C120.8 59.2543 125.4 61.7543 129.9 64.6543C134.2 67.4543 138.8 70.0543 142.4 73.6543C152.5 83.7543 151.1 101.154 139.9 110.454C130 118.654 114.7 118.954 103.1 111.254C99.7 108.954 100.1 109.454 94.3 104.654Z" fill="#F55D3E"/>
</svg>

<svg fill="none" height="152" viewBox="0 0 152 152" width="152" xmlns="http://www.w3.org/2000/svg"><g fill="#f55d3e"><path d="m151.5 40.6542c-3.8 3.6-7.5 7-11.2 10.5-1.8-1.6-3.8-3.4-6-5-2.9-2.1-6-3.7-9.7-3.7-3.6-.1-6.4 1.2-8.3 4.2-4.7 7.3-9.3 14.7-14 22.1-6.3 9.9-12.5 19.8-19 29.6-9 13.4998-22 19.0998-37.9 18.8998-9.3-.1-17.9-2.2-25.6-7.7-1.1-.8-2.1-1.6-3.5-2.7v37.1c-5.5 0-10.8 0-16.3 0 0-38.9 0-77.7998 0-116.7998h16.2v10.6c1.3-1 2.2-1.8 3.3-2.5 9.5-7 20.2-9.2 31.7-7.9 15.8 1.7 27.1 10 34.5 23.9.7 1.4.6 2.4-.3 3.7-3.6 5.3-7.2 10.7-10.6 16-1-3.6-1.8-7.4-3.1-11-3.5-9.9-11.3-15-21.1-16.9-16.9-3.3-32.1 8.7-34.3 25.8-1.9 15.1 8.7 30.1 23.8 32.5998 12.2 2 22.6-1.8998 30-11.9998 5.8-8 11-16.6 16.4-24.9 5.5-8.5 11.3-16.9 16.5-25.6 7-11.7 21.3-14.4 32.6-9.6 6 2.3 11 6.3 15.9 11.3z"/><path d="m94.3 104.654c.6-.7 9.7-13.2997 10.2-13.7997 2.4 2.3 4.5 4.6 6.9 6.5 4 3.1997 8.5 4.6997 13.5 3.2997 4.1-1.0997 7.3-3.5997 8.3-7.8997 1-4.4-.9-7.8-4.6-10.3-1.2-.8-3.4-2.2-4.7-3-1.5-1-5.9-3.5-10.1-5.9-3.4-2.2-3.9-2.3-6.1-3.8 3-4.7 5.8-9.2 8.4-13.3 4.7 2.8 9.3 5.3 13.8 8.2 4.3 2.8 8.9 5.4 12.5 9 10.1 10.1 8.7 27.4997-2.5 36.7997-9.9 8.2-25.2 8.5-36.8.8-3.4-2.3-3-1.8-8.8-6.6z"/></g></svg>
